include/LD/assets/icons/action/new_custom21.svg

<?xml version="1.0"?><svg xmlns="http://www.w3.org/2000/svg" width="52" height="52" viewBox="0 0 52 52"><g fill="#fff"><path d="m32.1 42.9c-0.2-0.6-0.8-0.9-1.4-0.9h-9.3c-0.6 0-1.2 0.3-1.4 0.9l-2.2 5.9c-0.2 0.6 0.2 1.1 0.7 1.1h15c0.6 0 1-0.6 0.7-1.1l-2.1-5.9z m13.1-40.9h-38.4c-2.6 0-4.8 2.1-4.8 4.8v25.6c0 2.6 2.2 4.8 4.8 4.8h38.4c2.6 0 4.8-2.2 4.8-4.8v-25.6c0-2.7-2.2-4.8-4.8-4.8z m-19.2 33.6c-1.4 0-2.4-1-2.4-2.4s1-2.4 2.4-2.4 2.4 1 2.4 2.4-1 2.4-2.4 2.4z m19.2-8c0 0.9-0.7 1.6-1.6 1.6h-35.2c-0.9 0-1.6-0.7-1.6-1.6v-19.2c0-0.9 0.7-1.6 1.6-1.6h35.2c0.9 0 1.6 0.7 1.6 1.6v19.2z"></path></g></svg>

<svg xmlns="http://www.w3.org/2000/svg" x="0px" y="0px"
	 width="52px" height="52px" viewBox="0 0 52 52" enable-background="new 0 0 52 52" xml:space="preserve">
<g>
	<path fill="#FFFFFF" d="M32.1,42.9c-0.2-0.6-0.8-0.9-1.4-0.9h-9.3c-0.6,0-1.2,0.3-1.4,0.9l-2.2,5.9c-0.2,0.6,0.2,1.1,0.7,1.1h15
		c0.6,0,1-0.6,0.7-1.1L32.1,42.9z"/>
	<path fill="#FFFFFF" d="M45.2,2H6.8C4.2,2,2,4.1,2,6.8v25.6c0,2.6,2.2,4.8,4.8,4.8h38.4c2.6,0,4.8-2.2,4.8-4.8V6.8
		C50,4.1,47.8,2,45.2,2z M26,35.6c-1.4,0-2.4-1-2.4-2.4c0-1.4,1-2.4,2.4-2.4s2.4,1,2.4,2.4C28.4,34.6,27.4,35.6,26,35.6z M45.2,27.6
		c0,0.9-0.7,1.6-1.6,1.6H8.4c-0.9,0-1.6-0.7-1.6-1.6V8.4c0-0.9,0.7-1.6,1.6-1.6h35.2c0.9,0,1.6,0.7,1.6,1.6V27.6z"/>
</g>
</svg>
